X:816
T:Tonra's
T:Tone Rowes
R:Jig
O:Ireland
C:Brendan Tonra
B:Ceol Rince 3,20
B:Music from Ireland Vol. 3
S:Music from Ireland Vol. 3
Z:Transcription, chords:Mike Long
M:6/8
L:1/8
K:D
D/E/|\
"D"~F3 AFE|"G"EDB, A,B,D|FEF GFG|"A"ABF AFE|\
"D"F3 AFE|"G"EDB, A,B,D|"G"BdB "A"AFE|"D"DCE D2:|
|:g|\
"D"~f2d dcd|"G"edc B/c/de|"D"fdd dcd|"A"ABF Ade|\
"D"~f2d dcd|"G"edc B/c/de|"D"f/g/af "A"gec|"D"dAF D2:|
